brandFactory_export/2.Regular/Renovar equipo_Cambiar movil_2Regular.svg

<?xml version="1.0" encoding="UTF-8"?>
<svg width="24px" height="24px" viewBox="0 0 24 24" version="1.1" xmlns="http://www.w3.org/2000/svg" xmlns:xlink="http://www.w3.org/1999/xlink">
    <title>2.Regular/Renovar equipo_Cambiar movil_2Regular</title>
    <g id="Symbols" stroke="none" stroke-width="1" fill="none" fill-rule="evenodd">
        <g id="2.Regular/Renovar-equipo_Cambiar-movil_2Regular" fill="#5CB615" fill-rule="nonzero">
            <path d="M20.0907563,2.01008403 C21.1966387,2.01008403 22.0672269,2.3092437 22.6823529,2.90084034 C23.3210084,3.51596639 23.6436975,4.41008403 23.6436975,5.56302521 L23.6436975,19.4352941 C23.6436975,20.5848739 23.3210084,21.4823529 22.6823529,22.097479 C22.0672269,22.6890756 21.1932773,22.9882353 20.087395,22.9882353 L12.7193277,22.9882353 C11.6134454,22.9882353 10.7428571,22.6890756 10.1277311,22.097479 C9.48907563,21.4823529 9.16638655,20.5848739 9.16638655,19.4352941 L9.16638655,5.56302521 C9.16638655,4.41344538 9.48907563,3.51596639 10.1277311,2.90084034 C10.7394958,2.3092437 11.6134454,2.01008403 12.7193277,2.01008403 L20.0907563,2.01008403 Z M5.76470588,11.5193277 C7.09579832,11.5193277 7.88907563,12.312605 7.88907563,13.6436975 L7.88907563,20.8336134 C7.88571429,22.1613445 7.09243697,22.9579832 5.76470588,22.9579832 L2.14117647,22.9579832 C0.810084034,22.9579832 0.0168067226,22.1647059 0.0168067226,20.8336134 L0.0168067226,13.6436975 C0.0168067226,12.312605 0.810084034,11.5193277 2.14117647,11.5193277 L5.76470588,11.5193277 Z M20.0907563,3.35462185 L12.7193277,3.35462185 C11.1932773,3.35462185 10.5109244,4.03697479 10.5109244,5.56302521 L10.5109244,19.4352941 C10.5109244,20.9613445 11.1932773,21.6436975 12.7193277,21.6436975 L20.0907563,21.6436975 C21.6168067,21.6436975 22.2991597,20.9613445 22.2991597,19.4352941 L22.2991597,5.56302521 C22.2991597,4.03697479 21.6168067,3.35462185 20.0907563,3.35462185 Z M5.76470588,12.8638655 L2.14117647,12.8638655 C1.55966387,12.8638655 1.36134454,13.0621849 1.36134454,13.6436975 L1.36134454,20.8336134 C1.36134454,21.4151261 1.55630252,21.6134454 2.14117647,21.6134454 L5.76470588,21.6134454 C6.34621849,21.6134454 6.54453782,21.4151261 6.54453782,20.8336134 L6.54453782,13.6436975 C6.54453782,13.0588235 6.34621849,12.8638655 5.76470588,12.8638655 Z M4.0907563,19.9529412 C4.36638655,19.9529412 4.54453782,20.0941176 4.54453782,20.4 C4.54453782,20.5445378 4.50420168,20.6554622 4.4302521,20.7294118 C4.35294118,20.8067227 4.23865546,20.8470588 4.09411765,20.8470588 C3.94957983,20.8470588 3.83193277,20.810084 3.75462185,20.7294118 C3.68067227,20.6554622 3.64033613,20.5478992 3.64033613,20.4 C3.64033613,20.0941176 3.81512605,19.9529412 4.0907563,19.9529412 Z M16.3865546,18.9915966 C16.8470588,18.9915966 17.1462185,19.2302521 17.1462185,19.7445378 C17.1462185,19.9932773 17.0756303,20.1747899 16.9546218,20.2991597 C16.8201681,20.4336134 16.6252101,20.497479 16.3865546,20.497479 C16.1478992,20.497479 15.9529412,20.4336134 15.8184874,20.2991597 C15.6941176,20.1747899 15.6268908,19.989916 15.6268908,19.7445378 C15.6268908,19.2302521 15.9260504,18.9915966 16.3865546,18.9915966 Z M6.33613445,4.07394958 C6.3697479,4.10420168 7.17647059,4.78991597 7.47563025,5.08907563 C7.95966387,5.57647059 7.96302521,6.17478992 7.48235294,6.65546218 C7.33109244,6.80672269 6.50084034,7.51932773 6.33613445,7.6605042 C6.23193277,7.75798319 6.09747899,7.80840336 5.95630252,7.80840336 C5.6302521,7.80840336 5.36806723,7.54621849 5.36806723,7.22016807 C5.36806723,7.0487395 5.44201681,6.88403361 5.57310924,6.77310924 C5.68642006,6.67571813 5.80338335,6.57493544 5.91673082,6.4769392 L5.83865546,6.47731092 C4.19831933,6.47731092 3.43529412,7.24033613 3.43529412,8.88067227 L3.43529412,9.64705882 C3.43529412,9.97310924 3.17310924,10.2352941 2.84705882,10.2352941 C2.5210084,10.2352941 2.25882353,9.97310924 2.25882353,9.64705882 L2.25882353,8.88067227 C2.25882353,7.71428571 2.58487395,6.81344538 3.22352941,6.19495798 C3.83865546,5.6 4.71932773,5.30084034 5.83865546,5.30084034 L5.95397269,5.30038646 C5.79839378,5.16476479 5.65693134,5.04308295 5.57310924,4.97142857 C5.32436975,4.75966387 5.29411765,4.38991597 5.50588235,4.14117647 C5.71764706,3.89243697 6.08739496,3.86218487 6.33613445,4.07394958 Z" id="Renovar-equipo_Cambiar-movil_2Regular"></path>
        </g>
    </g>
</svg>

<svg width="24" height="24" viewBox="0 0 24 24" xmlns="http://www.w3.org/2000/svg"><path d="M20.09 2.01c1.107 0 1.977.3 2.592.89.639.616.962 1.51.962 2.663v13.872c0 1.15-.323 2.047-.962 2.662-.615.592-1.489.891-2.595.891H12.72c-1.106 0-1.976-.299-2.591-.89-.639-.616-.962-1.513-.962-2.663V5.563c0-1.15.323-2.047.962-2.662.611-.592 1.485-.89 2.591-.89h7.372zM5.766 11.52c1.33 0 2.124.793 2.124 2.124v7.19c-.003 1.327-.797 2.124-2.124 2.124H2.14c-1.33 0-2.124-.793-2.124-2.124v-7.19c0-1.331.793-2.125 2.124-2.125h3.624zM20.09 3.354h-7.372c-1.526 0-2.208.682-2.208 2.208v13.872c0 1.526.682 2.209 2.208 2.209h7.372c1.526 0 2.208-.683 2.208-2.209V5.563c0-1.526-.682-2.208-2.208-2.208zM5.765 12.864H2.14c-.581 0-.78.198-.78.78v7.19c0 .581.195.78.78.78h3.624c.581 0 .78-.199.78-.78v-7.19c0-.585-.199-.78-.78-.78zM4.09 19.953c.275 0 .454.141.454.447 0 .145-.04.255-.115.33a.46.46 0 01-.336.117c-.144 0-.262-.037-.34-.118-.073-.074-.114-.181-.114-.329 0-.306.175-.447.45-.447zm12.296-.961c.46 0 .76.238.76.753 0 .248-.071.43-.192.554-.135.135-.33.198-.568.198-.24 0-.434-.063-.569-.198-.124-.124-.191-.31-.191-.554 0-.515.3-.753.76-.753zM6.337 4.074c.033.03.84.716 1.139 1.015.484.487.487 1.086.006 1.566-.15.152-.981.864-1.146 1.006a.55.55 0 01-.38.147.587.587 0 01-.383-1.035l.344-.296h-.078c-1.64 0-2.404.763-2.404 2.404v.766a.587.587 0 01-.588.588.587.587 0 01-.588-.588v-.766c0-1.167.326-2.068.965-2.686.615-.595 1.495-.894 2.615-.894h.115a54.914 54.914 0 00-.38-.33.587.587 0 01-.068-.83.587.587 0 01.83-.067z" fill="#5CB615" fill-rule="nonzero"/></svg>
